X:1
T:Le ruban rose
T:Le ruban rose
T:Augusta Holmès
T:(Holmès)
T:Creative Commons copyright waiver (CC0 1.0 Universal)
T:Creative Commons copyright waiver (CC0 1.0 Universal)
T:Creative Commons copyright waiver (CC0 1.0 Universal)
T:Creative Commons copyright waiver (CC0 1.0 Universal)
T:Creative Commons copyright waiver (CC0 1.0 Universal)
T:Creative Commons copyright waiver (CC0 1.0 Universal)
T:Creative Commons copyright waiver (CC0 1.0 Universal)
T:Creative Commons copyright waiver (CC0 1.0 Universal)
T:Creative Commons copyright waiver (CC0 1.0 Universal)
C:Augusta Holmès
Z:(Holmès)
Z:Creative Commons copyright waiver (CC0 1.0 Universal)
L:1/8
Q:1/4=138
M:4/4
K:Bb
V:1 treble nm="Voix"
V:1
"^Allegretto" z8 | z8 | z8 | z8 | z8 | z8 | z8 | z8 | z8 | z8 |"^a Tempo" z4 z!p! D =E ^F || %11
w: ||||||||||Ce- lui que|
[K:Bb] .G2 .d2 .d2 .c2 | d4 .e2 .f2 | d2 c B .c2 .d2 | BA G2 z G A B |!<(! A2 d2!<)! d2!>(! =e2 | %16
w: j'aime est si mi-|gnon Que les|fem- mes en sont mar-|ri- * es; Il n'a ni|chas- ses ni prai-|
 (d2!>)!!mp! A) z D =E ^F D | A4 ^F2 =E2 | D4 z!f! D =E ^F | G2 d2 d2 c2 | d2 d z!f! e2 f2 | %21
w: ri- es; Pas mê- me le|moin- dre pi-|gnon! Il est de|très bon- ne no-|bles- se, Et plus|
 d2 c B c2 d2 | G4 z3/2!p! G/ A3/2 B/ | A2 z2 z3/2 G/ A3/2 B/ | A2 A2 z2!p!!>(! d ^f!>)! | %25
w: bra- ve que ses a-|ïeux! Il est ja-|\- loux, un rien le|bles- se! Ses é-|
!pp! (a4 A2) =B2 | ^F4({=EF)} E4 | D2- D z z4 | z8 | z8 | z4 z2!<(! (D2!<)! | %31
w: toi- les, ce|sont mes|yeux.  _|||Et|
"^più lento" d) z (d2 d3 =e | c2 c2 c2 d2) | z2 =B d!pp! (g4 | =B) G A B A/ z/"^1° Tempo" D =E ^F | %35
w: puis, c'est un char-|mant vi- sa- ge|Fier et ten-|dre, bien à mon gré.. Il res- semble|
!<(! G2 d2!<)!!>(! d2 c2!>)! |!>(! d2-!>)! d z z2!<(! e f | g!<)! z!p! G A B2 z2 | %38
w: à l'A- mour pou-|\- dré!  _ C'est pour-|quoi j'en ai fait...|
 z4 z!<(! D =E ^F | G2 d2!<)! d z!p!"^molto rall." (e2 | G2 ^F=E F2({GF)} EF | %41
w: c'est pour- quoi|j'en ai fait mon|pa- * * * * *|
"^a Tempo" G2- G) z z4 | z8 | z8 | z8 | z8 | z8 | z8 | z8 | z8 | z8 |"^a Tempo" z4 z!p! D =E ^F | %52
w: ge!  _||||||||||J'é- tais en|
 G2 d2 d2 c2 | d4!f! e2 f2 | d2 c B .c2 .d2 | (BA) G2 z!p! G!<(! A B | A2 d2!<)! d2!>(! =e2 | %57
w: grand ha- bit de|Cour, Fard et|mou- ches, sa- tins, den-|te- * le; Ce- lui pour|qui je me fais|
 (d2!>)! A) z (D=E) ^F D | A2 =B2 ^F2({=EF)} E2 | D4 z!p! D =E ^F | G2 d2 d2 c2 | %61
w: bel- le À  _ mes ge-|\- noux par- lait d'a-|mour. Et mon col-|lier de ru- ban|
 d2 d z!<(! e2 f2!<)! |!>(! d c B z!>)! c2 d2 | G4 z3/2"^misterioso" G/ A3/2 B/ | %64
w: ro- se,  Je ne|sais com- ment,  s'en- vo-|la! Il fut cueil-|
 A2 z2 z3/2 G/ A3/2 B/ | A2 A2 z2!p!!>(! d ^f!>)! |!pp! (a4 A2) =B2 | ^F4({=EF)} E4 | D2- D z z4 | %69
w: li comme u- ne|Ro- se Par le|Prin- ce qui|pas- sait|là!  _|
 z8 | z8 | z4 z2!<(! (D2!<)! |"^Più lento" d2) (d2 d3 =e | c2 c2 c2 d2) | z!p! =B B d g4- | %75
w: ||« Voi-|\- ci vo- tre ru-|ban, Ma- da- me;|Re- pre- nez- le |
 g (G A =B A/) z/"^1° Tempo"!p!"^méchamment" D =E ^F |!<(! .G2 .d2 .d2!<)! .c2 | d4- d z e f | %78
w: _ contre un bai- ser! Gar- dez- vous|bien de re- fu-|ser;  _ En ce|
 g z!p! G A B2 z2 | z4 z"^avec ironie"!<(! D =E ^F | %80
w: cas votre a- mant...|En ce cas|
 G2 d2!<)! d z!p!"^avec une grande politesse""^molto rall." ((e2 | G2) ^F=E F2 EF | %82
w: votre a- mant rend|l'â- * * * * *|
"^a Tempo" G2-) G z z4 | z8 | z8 | z8 | z8 | z8 | z8 | z8 | z8 | z8 | %92
w: \- me. »  _||||||||||
"^a Tempo" z4 z!p! D!<(! =E ^F | .G2 .d2 .d2 !^!c2!<)! | !^!d4 e z!f! f2 | d2 c B c2 d2 | %96
w: Mon jeune a-|mi, plein de fu-|reur, Dit: « Ma-|\- da- me n'est point en|
 (BA) G2!<(! z G A B | A z d2!<)! d2 =e2 |!>(! (d2!>)! A)!<(! z D =E ^F D!<)! |!f! A4!>(! ^F2 =E2 | %100
w: cau- * se! Il m'ap- par-|tient, ce ru- ban|ro- se, Et je vous tue-|rai, Mon- sei-|
 D4!>)! z!p! D =E ^F | G2 d2 d2 c2 | d2 d z (e2 f2 | d2) c B c2 d2 | G4 z3/2!f! G/ A3/2 B/ | %105
w: gneur! » Et je le|vis, au clair de|lu- ne, Si jo-|li pen- dant le com-|bat, Qu'il fut choi-|
 A2 z2!f! z3/2 G/ A3/2 B/ | A2"^avec joie" A2 z d d ^f |!mf! (a4 A2) =B2 | ^F4({=EF)} =E4 | %109
w: \- si par la For-|tu- ne Pour que le|Prin- * ce|suc- com-|
 D2- D z z4 | z8 | z8 | z4 z2!p!!<(! (D2!<)! |"^Più lento" d2) (d2 d3 =e | c2) (c2 c2 d2) | %115
w: \- bat!  _|||« Il|faut me con- so-|ler, Mar- qui- se, »|
 z2 =B d!pp! (g4 | =B) G A B A/ z/"^1° Tempo"!p!"^légèrement"!<(! D =E ^F | G2!<)! d2 d2 c2 | %118
w: Dit mon pa-|\- ge, triste à de- mi, « J'ai tu- é|mon meil- leur a-|
 d2 z2 z2!p!!<(! e f!<)! | g2 z2 z4 | z4 z!<(! D =E ^F | G2!<)! d2 d z!p! e2 | %122
w: mi! » C'est pour-|quoi...|C'est pour- quoi|je lui fus ex-|
"^molto rall." G2 ^F=E F2({GF)} EF | G4- G2 z2 | !fermata!z8 |] %125
w: qui- * * * * *|se!  _||

